!!!OTL: Zhaicha guniang xinhuanchang
!!!ARE: Asia, China,ÿJiangxi Ruijin
!! IV, 193
!!!SCT: C1955
!!!YEM: Copyright 1995, estate of Helmut Schaffrath.
**kern
*ICvox
*Ivox
*M2/4
*k[]
*C:
{8g
8d
8e
8g
=1
16a
16cc
8a
4a
=2
8.cc
16dd
16ee
16dd
8ee
=3
2dd}
=4
{8cc
8cc
16dd
16cc
8a
=5
8.g
16a
8cc
8dd
=6
8a
16g
16a
8cc
8a
=7
2g}
=8
{8g
8d
8e
8g
=9
8a
8cc
8a
8e
=10
8cc
16a
16cc
8dd
8cc
=11
8a
4.a}
=12
{8g
8d
8e
8g
=13
8a
8cc
8a
8d
=14
8.cc
16dd
16ee
16dd
8ee
=15
2dd}
=16
{8ee
8ee
8a
8a
=17
2cc
=18
8a
16g
16a
8cc
8a
=19
2g}
=20
{8g
8d
8e
8g
=21
8a
8dd
8dd
8cc
=22
8a
16g
16a
8cc
8a
=23
8g
4.g}
==
!!!AGN: Xiaodiao, Chage
!!!AMT: simple duple
!!!AIN: vox
!!!EED: Helmut Schaffrath
!!!EEV: 1.0
*-
